X: 15685
T: Golden Brown Chevette, The
R: reel
M: 4/4
K: Bminor
|:fB B/B/B dBGd|cA A/A/A aAgA|fB B/B/B dBGd|cfec dB B/B/B:|
dBGd BGdB|ecAe cAeA|aAgA fAeA|fAeA dAeA|
dBGd BGdB|ecAe cAeA|aAeA fAdA|cfec dB B/B/B||
|:fB B/B/B AB B/B/B|GB B/B/B Bcdf|ec c/c/c Ac c/c/c|1 AaBa cada:|2 cfec dB B/B/B||
dBGd BGdB|ecAe cAeA|aAeA fAdA|eAcA dGBG|
dBGd BGdB|ecAe cAeA|aAgA fAec|1 dfec dB B/B/B|2 dfec dBBA B4||
dBGd BGdB|ecAe cAeA|f3e d2c2|f2ef defe|
dBGd BGdB|ecAe cAeA|aAeA fAdA|cfec dB B/B/B||

